src/img/icons/Line.svg

<svg width="34" height="8" viewBox="0 0 34 8" fill="none" xmlns="http://www.w3.org/2000/svg">
<path d="M1 3.5C0.723858 3.5 0.5 3.72386 0.5 4C0.5 4.27614 0.723858 4.5 1 4.5V3.5ZM33.3536 4.35355C33.5488 4.15829 33.5488 3.84171 33.3536 3.64645L30.1716 0.464466C29.9763 0.269204 29.6597 0.269204 29.4645 0.464466C29.2692 0.659728 29.2692 0.976311 29.4645 1.17157L32.2929 4L29.4645 6.82843C29.2692 7.02369 29.2692 7.34027 29.4645 7.53553C29.6597 7.7308 29.9763 7.7308 30.1716 7.53553L33.3536 4.35355ZM1 4.5H33V3.5H1V4.5Z" fill="#0E5E6F"/>
</svg>

<svg width="34" height="8" viewBox="0 0 34 8" fill="none" xmlns="http://www.w3.org/2000/svg"><path d="M1 3.5a.5.5 0 0 0 0 1v-1zm32.354.854a.5.5 0 0 0 0-.708L30.172.464a.5.5 0 1 0-.707.708L32.293 4l-2.828 2.828a.5.5 0 1 0 .707.708l3.182-3.182zM1 4.5h32v-1H1v1z" fill="#0E5E6F"/></svg>
